X: 24722
T: Mad Alchemist, The
R: jig
M: 6/8
K: Edorian
|:eBB dBB|eBA GFE|eBB dBB|eBf BgB|
eBB dBB|eBA GFE|eBB dBB|ABc dcd:|
|:EFG EFG|ABc dcd|EFG EFG|A2B AFD|
EFG EFG|ABc dcd|e2B ABc|d2B AFD:|

